store-minus.svg

<svg fill="currentColor" viewBox="0 0 24 24"><path d="M4 4v2h16V4M4 7l-1 5v2h1v6h9c-.05-.34-.08-.69-.08-1.05 0-1.22.38-2.42 1.08-3.42V14h1.54c1-.67 2.17-1.04 3.37-1.04.71 0 1.42.13 2.09.38V12l-1-5M6 14h6v4H6m9 0v2h8v-2"/></svg>

<svg  viewBox="0 0 24 24" fill="currentColor"><path  d="M4 4V6H20V4M4 7L3 12V14H4V20H13C12.95 19.66 12.92 19.31 12.92 18.95C12.92 17.73 13.3 16.53 14 15.53V14H15.54C16.54 13.33 17.71 12.96 18.91 12.96C19.62 12.96 20.33 13.09 21 13.34V12L20 7M6 14H12V18H6M15 18V20H23V18"/></svg>
